icons/1_Primary/Neeva.svg

<svg xmlns="http://www.w3.org/2000/svg" viewBox="0 0 1024 1024">
   <circle cx="512" cy="512" r="512" style="fill:#415aff"/>
   <path d="M565.475 265.749c-.303 54.05-16.309 104.464-43.591 146.796 50.336 2.525 90.504 44.251 90.504 95.372v189.329h151.006V508.017c0-119.72-85.269-219.638-197.919-242.268ZM266.087 545.295v151.947h151.006V545.295H266.087Zm111.264-245.14c38.111-24.867 83.329-39.357 131.957-39.357h7.752l18.222.708v2.727c0 134.437-108.91 243.869-242.83 244.087l-.392.001h-7.752c-6.141 0-12.181-.202-18.221-.708v-2.728c0-57.485 19.933-110.425 53.255-152.15v-.101h.1l.19-.238a244.302 244.302 0 0 1 17.089-19.19l-.363.231a285.684 285.684 0 0 1 9.752-9.357 214.384 214.384 0 0 1 10.281-8.828l-.27.342a243.908 243.908 0 0 1 20.805-15.192v-.101h.201l.224-.146Z" style="fill:#fff"/>
</svg>

<svg width="1024" height="1024" viewBox="0 0 1024 1024" fill="none" xmlns="http://www.w3.org/2000/svg">
<g clip-path="url(#clip0_2_2886)">
<path d="M512 1024C794.77 1024 1024 794.77 1024 512C1024 229.23 794.77 0 512 0C229.23 0 0 229.23 0 512C0 794.77 229.23 1024 512 1024Z" fill="#728DBE"/>
<path d="M565.475 265.749C565.172 319.799 549.166 370.213 521.884 412.545C572.22 415.07 612.388 456.796 612.388 507.917V697.246H763.394V508.017C763.394 388.297 678.125 288.379 565.475 265.749ZM266.087 545.295V697.242H417.093V545.295H266.087ZM377.351 300.155C415.462 275.288 460.68 260.798 509.308 260.798H517.06L535.282 261.506V264.233C535.282 398.67 426.372 508.102 292.452 508.32L292.06 508.321H284.308C278.167 508.321 272.127 508.119 266.087 507.613V504.885C266.087 447.4 286.02 394.46 319.342 352.735V352.634H319.442L319.632 352.396C324.988 345.704 330.692 339.298 336.721 333.206L336.358 333.437C339.534 330.242 342.786 327.122 346.11 324.08C349.443 321.03 352.872 318.086 356.391 315.252L356.121 315.594C362.783 310.167 369.728 305.096 376.926 300.402V300.301H377.127L377.351 300.155Z" fill="white"/>
</g>
<defs>
<clipPath id="clip0_2_2886">
<rect width="1024" height="1024" fill="white"/>
</clipPath>
</defs>
</svg>
